svgs/duotone/pen-to-square.svg

<svg xmlns="http://www.w3.org/2000/svg" viewBox="0 0 512 512"><!--! Font Awesome Pro 6.1.1 by @fontawesome - https://fontawesome.com License - https://fontawesome.com/license (Commercial License) Copyright 2022 Fonticons, Inc. --><defs><style>.fa-secondary{opacity:.4}</style></defs><path class="fa-primary" d="M392.4 21.66C414.3-.2135 449.7-.2135 471.6 21.66L490.3 40.4C512.2 62.27 512.2 97.73 490.3 119.6L460.3 149.7L362.3 51.72L392.4 21.66zM437.7 172.3L270.3 339.6C264.2 345.8 256.7 350.4 248.4 353.2L159.6 382.8C150.1 385.6 141.5 383.4 135 376.1C128.6 370.5 126.4 361 129.2 352.4L158.8 263.6C161.6 255.3 166.2 247.8 172.4 241.7L339.7 74.34L437.7 172.3z"/><path class="fa-secondary" d="M0 160C0 106.1 42.98 64 96 64H192C209.7 64 224 78.33 224 96C224 113.7 209.7 128 192 128H96C78.33 128 64 142.3 64 160V416C64 433.7 78.33 448 96 448H352C369.7 448 384 433.7 384 416V320C384 302.3 398.3 288 416 288C433.7 288 448 302.3 448 320V416C448 469 405 512 352 512H96C42.98 512 0 469 0 416V160z"/></svg>

<svg xmlns="http://www.w3.org/2000/svg" viewBox="0 0 512 512"><!--! Font Awesome Pro 6.4.2 by @fontawesome - https://fontawesome.com License - https://fontawesome.com/license (Commercial License) Copyright 2023 Fonticons, Inc. --><path class="fa-primary" style="fill:var(--fa-primary-color,inherit);opacity:var(--fa-primary-opacity,1);" d="M392.4 21.7L362.3 51.7l97.9 97.9 30.1-30.1c21.9-21.9 21.9-57.3 0-79.2L471.6 21.7c-21.9-21.9-57.3-21.9-79.2 0zM339.7 74.3L172.4 241.7c-6.1 6.1-10.8 13.6-13.5 21.9l-29.6 88.8c-2.9 8.6-.6 18.1 5.8 24.6s15.9 8.7 24.6 5.8l88.8-29.6c8.2-2.7 15.7-7.4 21.9-13.5L437.7 172.3 339.7 74.3z"/><path class="fa-secondary" style="fill:var(--fa-secondary-color,inherit);opacity:var(--fa-secondary-opacity,.4);" d="M0 160c0-53 43-96 96-96h96c17.7 0 32 14.3 32 32s-14.3 32-32 32H96c-17.7 0-32 14.3-32 32V416c0 17.7 14.3 32 32 32H352c17.7 0 32-14.3 32-32V320c0-17.7 14.3-32 32-32s32 14.3 32 32v96c0 53-43 96-96 96H96c-53 0-96-43-96-96V160z"/></svg>
